X: 74
T: No_171.krn
N: Derived from No_171.krn
%%abc-version 2.0
%%abcx-abcm2ps-target-version 5.9.1 (29 Sep 2008)
%%abc-creator hum2abc beta
%%abcx-conversion-date 2019/03/15 08:29:13
%%humdrum-veritas 2270423580
%%humdrum-veritas-data 1126257771
%%linebreak <none>
%%barnumbers 0
L: 1/8
M: 3/4
%%staves {1 2}
V: 1 clef=bass
V: 2 clef=bass
K: C
[V:1] E3/G/ [I:setbarnb 1]| 
[V:2] z2 | 
[V:1] E2E2(3EDC ||  
[V:2] G,,/!accent!G,, z/ G,,/!accent!G,, z/ G,,/!accent!G,, z/ ||  
[V:1] [M:2/4]C3E/C/ | 
[V:2] [M:2/4]G,,/!accent!G,, z/ G,,/!accent!G,, z/ | 
[V:1] A,/A,3/A,2- | 
[V:2] z4 | 
[V:1] A,2C3/A,/ ||  
[V:2] z4 ||  
[V:1] [M:3/4]C4(3ECA, ||  
[V:2] [M:3/4]z6 ||  
[V:1] [M:2/4]A,3/G,/A,2 ||  
[V:2] [M:2/4]z4 ||  
[V:1] [M:3/4]E,4(3E,D,C, ||  
[V:2] [M:3/4]z6 ||  
[V:1] [M:2/4]D,2{/E,} (3E,C,A,, | 
[V:2] [M:2/4]z4 | 
[V:1] A,,3A,, | 
[V:2] z4 | 
[V:1] A,,4 |]  
[V:2] z4 |]  



